src/assets/icons/icon-plus.svg

<svg width="25" height="25" viewBox="0 0 25 25" fill="none" xmlns="http://www.w3.org/2000/svg">
<path d="M24.1668 14.1667H14.1668V24.1667H10.8335V14.1667H0.833496V10.8333H10.8335V0.833344H14.1668V10.8333H24.1668V14.1667Z" fill="#343A40"/>
</svg>

<svg width="25" height="25" fill="none" xmlns="http://www.w3.org/2000/svg">
    <path d="M24.167 14.167h-10v10h-3.333v-10h-10v-3.334h10v-10h3.333v10h10v3.334Z" fill="#343A40"/>
</svg>
